cssgg/sort-za.svg

<svg
  width="24"
  height="24"
  viewBox="0 0 24 24"
  fill="none"
  xmlns="http://www.w3.org/2000/svg"
>
  <path
    d="M6 16C6 16.5523 6.44772 17 7 17H17C17.5523 17 18 16.5523 18 16C18 15.4477 17.5523 15 17 15H7C6.44772 15 6 15.4477 6 16Z"
    fill="currentColor"
  />
  <path
    d="M8 12C8 12.5523 8.44772 13 9 13H15C15.5523 13 16 12.5523 16 12C16 11.4477 15.5523 11 15 11H9C8.44772 11 8 11.4477 8 12Z"
    fill="currentColor"
  />
  <path
    d="M11 9C10.4477 9 10 8.55229 10 8C10 7.44771 10.4477 7 11 7H13C13.5523 7 14 7.44771 14 8C14 8.55229 13.5523 9 13 9H11Z"
    fill="currentColor"
  />
</svg>

<svg viewBox="0 0 24 24" xmlns="http://www.w3.org/2000/svg"><g><path d="M6 16c0 .55.44 1 1 1h10c.55 0 1-.45 1-1 0-.56-.45-1-1-1H7c-.56 0-1 .44-1 1Z"/><path d="M8 12c0 .55.44 1 1 1h6c.55 0 1-.45 1-1 0-.56-.45-1-1-1H9c-.56 0-1 .44-1 1Z"/><path d="M11 9c-.56 0-1-.45-1-1 0-.56.44-1 1-1h2c.55 0 1 .44 1 1 0 .55-.45 1-1 1h-2Z"/></g></svg>
